X: 1
T: Youngest Daughter, The
R: reel
H: See also &quot;In the Tap Room&quot;, #295.
H: The name is from O'Neill's, since there is no name on Mary Bergin's recording
D: Mary Bergin: Feadoga Stain
Z: id:hn-reel-378
M: C|
K: Edor
~E3G BEGB|dBAF DEFD|~E3G BEGB|dBAF BEED|
~E3G BEGB|dBAF DEFD|a2ge fdec|1 dBAF BEED:|2 dBAF BE~E2||
|:~e3f gfec|dBAF DEFD|~e3f gfec|dBAF BE~E2|
~e3f gfec|d2ce d2fg|afge fdec|1 dBAF BE~E2:|2 dBAF BEED||
